X:1
T:Les filles des Forges
C:Traditionnel, fichier abc : Bernard Loffet
L:1/8
Q:430
M:2/4
K:C
 z3E |: [E2A,2] [A2A,2] | [A2A,2] A,A | [A2A,2] [c2A,2] | [B2A,2] [A2A,2] | [G2G,2] G,2 | \
|1 [E2A,2] A,E :|2 [E2A,2] A,2 |: [A2A,2] A,2 | [B2A,2] A,c | [^c2A,2] [=c2A,2] | \
 [B2G,2] [AG,]B | [B2G,2] [B2G,2] |1 [A2A,2] [E2A,2] :|2 [A2A,2] A,2 |: [^c2A,2] A,2 | \
 [^c2A,2] A,c | [^c2A,2] [c2A,2] | [B2G,2] [BG,]B | [B2G,2] [B2G,2] |1 [^c2A,2] [c2A,2] :|2 [^c2A,2] A,2 | \
Z:Created with TablEdit http://www.tabledit.com/ by Bernard Loffet
